X: 1919
T: Uşşak Örnek-öz (1)
C: Rûhî Ayangil
O: Turkey
F: http://compmusic.upf.edu/node/140
N: ussak--ornek-oz--senginsemai--1--ruhi_ayangil
N: makam= ussak
N: form= ornek-oz
N: usul= senginsemai = 6/4
M: 6/4
L: 1/16
K: C _2/4B   
Q: 1/4=45
%%MIDI tuningsystem comma53
G2A2 B2c2 B4 c2B2 A8  | c2d2 e2f2 e4 d2c2 d8  | \
w:   |   | 
e2f2 e2d2 a2g2 f2e2 d2c2 B4  | 
w:   | 
c2d2 c4 B2c2 B4 A8  | |


